images/Chk1N97.svg

<?xml version="1.0" encoding="UTF-8"?>
<svg xmlns="http://www.w3.org/2000/svg" xmlns:xlink="http://www.w3.org/1999/xlink" width="300pt" height="300pt" viewBox="0 0 300 300" version="1.1">
<defs>
<g>
<symbol overflow="visible" id="glyph0-0">
<path style="stroke:none;" d="M 0.453125 1.59375 L 0.453125 -6.34375 L 4.953125 -6.34375 L 4.953125 1.59375 Z M 0.953125 1.09375 L 4.453125 1.09375 L 4.453125 -5.84375 L 0.953125 -5.84375 Z M 0.953125 1.09375 "/>
</symbol>
<symbol overflow="visible" id="glyph0-1">
<path style="stroke:none;" d="M 3.546875 -5.953125 C 2.898438 -5.953125 2.382812 -5.710938 2 -5.234375 C 1.625 -4.753906 1.4375 -4.101562 1.4375 -3.28125 C 1.4375 -2.445312 1.625 -1.789062 2 -1.3125 C 2.382812 -0.832031 2.898438 -0.59375 3.546875 -0.59375 C 4.191406 -0.59375 4.703125 -0.832031 5.078125 -1.3125 C 5.453125 -1.789062 5.640625 -2.445312 5.640625 -3.28125 C 5.640625 -4.101562 5.453125 -4.753906 5.078125 -5.234375 C 4.703125 -5.710938 4.191406 -5.953125 3.546875 -5.953125 Z M 3.546875 -6.6875 C 4.460938 -6.6875 5.195312 -6.375 5.75 -5.75 C 6.300781 -5.132812 6.578125 -4.3125 6.578125 -3.28125 C 6.578125 -2.238281 6.300781 -1.410156 5.75 -0.796875 C 5.195312 -0.179688 4.460938 0.125 3.546875 0.125 C 2.617188 0.125 1.878906 -0.179688 1.328125 -0.796875 C 0.773438 -1.410156 0.5 -2.238281 0.5 -3.28125 C 0.5 -4.3125 0.773438 -5.132812 1.328125 -5.75 C 1.878906 -6.375 2.617188 -6.6875 3.546875 -6.6875 Z M 3.546875 -6.6875 "/>
</symbol>
<symbol overflow="visible" id="glyph0-2">
<path style="stroke:none;" d="M 0.890625 -6.5625 L 2.078125 -6.5625 L 4.984375 -1.078125 L 4.984375 -6.5625 L 5.84375 -6.5625 L 5.84375 0 L 4.65625 0 L 1.75 -5.484375 L 1.75 0 L 0.890625 0 Z M 0.890625 -6.5625 "/>
</symbol>
<symbol overflow="visible" id="glyph0-3">
<path style="stroke:none;" d="M 0.890625 -6.5625 L 1.765625 -6.5625 L 1.765625 -3.875 L 5 -3.875 L 5 -6.5625 L 5.890625 -6.5625 L 5.890625 0 L 5 0 L 5 -3.125 L 1.765625 -3.125 L 1.765625 0 L 0.890625 0 Z M 0.890625 -6.5625 "/>
</symbol>
</g>
</defs>
<g id="surface97">
<rect x="0" y="0" width="300" height="300" style="fill:rgb(100%,100%,100%);fill-opacity:1;stroke:none;"/>
<path style="fill:none;stroke-width:1.2;stroke-linecap:butt;stroke-linejoin:miter;stroke:rgb(0%,0%,0%);stroke-opacity:1;stroke-miterlimit:10;" d="M 35.25 119.082031 L 40.929688 126.589844 "/>
<path style="fill:none;stroke-width:1.2;stroke-linecap:butt;stroke-linejoin:miter;stroke:rgb(100%,0%,0%);stroke-opacity:1;stroke-miterlimit:10;" d="M 40.929688 126.589844 L 46.609375 134.097656 "/>
<path style="fill:none;stroke-width:1.2;stroke-linecap:butt;stroke-linejoin:miter;stroke:rgb(100%,0%,0%);stroke-opacity:1;stroke-miterlimit:10;" d="M 46.609375 134.097656 L 55.949219 132.933594 "/>
<path style="fill:none;stroke-width:1.2;stroke-linecap:butt;stroke-linejoin:miter;stroke:rgb(0%,0%,0%);stroke-opacity:1;stroke-miterlimit:10;" d="M 55.949219 132.933594 L 65.292969 131.769531 "/>
<path style=" stroke:none;fill-rule:nonzero;fill:rgb(100%,100%,100%);fill-opacity:1;" d="M 42.609375 128.597656 L 50.609375 128.597656 L 50.609375 139.597656 L 42.609375 139.597656 Z M 42.609375 128.597656 "/>
<g style="fill:rgb(100%,0%,0%);fill-opacity:1;">
  <use xlink:href="#glyph0-1" x="42.609375" y="137.260742"/>
</g>
<path style="fill:none;stroke-width:1.2;stroke-linecap:butt;stroke-linejoin:miter;stroke:rgb(0%,0%,0%);stroke-opacity:1;stroke-miterlimit:10;" d="M 67.332031 132.632812 L 70.996094 123.960938 "/>
<path style="fill:none;stroke-width:1.2;stroke-linecap:butt;stroke-linejoin:miter;stroke:rgb(100%,0%,0%);stroke-opacity:1;stroke-miterlimit:10;" d="M 70.996094 123.960938 L 74.65625 115.289062 "/>
<path style="fill:none;stroke-width:1.2;stroke-linecap:butt;stroke-linejoin:miter;stroke:rgb(0%,0%,0%);stroke-opacity:1;stroke-miterlimit:10;" d="M 63.25 130.910156 L 66.914062 122.238281 "/>
<path style="fill:none;stroke-width:1.2;stroke-linecap:butt;stroke-linejoin:miter;stroke:rgb(100%,0%,0%);stroke-opacity:1;stroke-miterlimit:10;" d="M 66.914062 122.238281 L 70.578125 113.5625 "/>
<path style="fill:none;stroke-width:1.2;stroke-linecap:butt;stroke-linejoin:miter;stroke:rgb(0%,0%,0%);stroke-opacity:1;stroke-miterlimit:10;" d="M 65.292969 131.769531 L 76.648438 146.785156 "/>
<path style=" stroke:none;fill-rule:nonzero;fill:rgb(100%,100%,100%);fill-opacity:1;" d="M 68.617188 108.925781 L 76.617188 108.925781 L 76.617188 119.925781 L 68.617188 119.925781 Z M 68.617188 108.925781 "/>
<g style="fill:rgb(100%,0%,0%);fill-opacity:1;">
  <use xlink:href="#glyph0-1" x="68.617188" y="117.588867"/>
</g>
<path style="fill:none;stroke-width:1.2;stroke-linecap:butt;stroke-linejoin:miter;stroke:rgb(0%,0%,0%);stroke-opacity:1;stroke-miterlimit:10;" d="M 76.648438 146.785156 L 95.332031 144.457031 "/>
<path style="fill:none;stroke-width:1.2;stroke-linecap:butt;stroke-linejoin:miter;stroke:rgb(0%,0%,0%);stroke-opacity:1;stroke-miterlimit:10;" d="M 95.332031 144.457031 L 102.660156 127.113281 "/>
<path style="fill:none;stroke-width:1.2;stroke-linecap:butt;stroke-linejoin:miter;stroke:rgb(0%,0%,0%);stroke-opacity:1;stroke-miterlimit:10;" d="M 100.148438 144.449219 L 106.007812 130.574219 "/>
<path style="fill:none;stroke-width:1.2;stroke-linecap:butt;stroke-linejoin:miter;stroke:rgb(0%,0%,0%);stroke-opacity:1;stroke-miterlimit:10;" d="M 106.691406 159.476562 L 95.332031 144.457031 "/>
<path style="fill:none;stroke-width:1.2;stroke-linecap:butt;stroke-linejoin:miter;stroke:rgb(0%,0%,0%);stroke-opacity:1;stroke-miterlimit:10;" d="M 102.660156 127.113281 L 121.34375 124.785156 "/>
<path style="fill:none;stroke-width:1.2;stroke-linecap:butt;stroke-linejoin:miter;stroke:rgb(0%,0%,0%);stroke-opacity:1;stroke-miterlimit:10;" d="M 121.34375 124.785156 L 132.699219 139.800781 "/>
<path style="fill:none;stroke-width:1.2;stroke-linecap:butt;stroke-linejoin:miter;stroke:rgb(0%,0%,0%);stroke-opacity:1;stroke-miterlimit:10;" d="M 118.945312 128.960938 L 128.03125 140.972656 "/>
<path style="fill:none;stroke-width:1.2;stroke-linecap:butt;stroke-linejoin:miter;stroke:rgb(0%,0%,0%);stroke-opacity:1;stroke-miterlimit:10;" d="M 132.699219 139.800781 L 141.765625 137.257812 "/>
<path style="fill:none;stroke-width:1.2;stroke-linecap:butt;stroke-linejoin:miter;stroke:rgb(0%,0%,100%);stroke-opacity:1;stroke-miterlimit:10;" d="M 141.765625 137.257812 L 150.828125 134.714844 "/>
<path style="fill:none;stroke-width:1.2;stroke-linecap:butt;stroke-linejoin:miter;stroke:rgb(0%,0%,0%);stroke-opacity:1;stroke-miterlimit:10;" d="M 125.375 157.148438 L 132.699219 139.800781 "/>
<path style="fill:none;stroke-width:1.2;stroke-linecap:butt;stroke-linejoin:miter;stroke:rgb(0%,0%,100%);stroke-opacity:1;stroke-miterlimit:10;" d="M 150.828125 134.714844 L 158.46875 140.214844 "/>
<path style="fill:none;stroke-width:1.2;stroke-linecap:butt;stroke-linejoin:miter;stroke:rgb(0%,0%,0%);stroke-opacity:1;stroke-miterlimit:10;" d="M 158.46875 140.214844 L 166.109375 145.71875 "/>
<path style=" stroke:none;fill-rule:nonzero;fill:rgb(100%,100%,100%);fill-opacity:1;" d="M 143.828125 129.214844 L 157.828125 129.214844 L 157.828125 140.214844 L 143.828125 140.214844 Z M 143.828125 129.214844 "/>
<g style="fill:rgb(0%,0%,100%);fill-opacity:1;">
  <use xlink:href="#glyph0-2" x="143.828125" y="137.87793"/>
  <use xlink:href="#glyph0-3" x="150.805664" y="137.87793"/>
</g>
<path style="fill:none;stroke-width:1.2;stroke-linecap:butt;stroke-linejoin:miter;stroke:rgb(0%,0%,0%);stroke-opacity:1;stroke-miterlimit:10;" d="M 166.109375 145.71875 L 181.933594 135.511719 "/>
<path style="fill:none;stroke-width:1.2;stroke-linecap:butt;stroke-linejoin:miter;stroke:rgb(0%,0%,0%);stroke-opacity:1;stroke-miterlimit:10;" d="M 170.09375 148.421875 L 182.75 140.257812 "/>
<path style="fill:none;stroke-width:1.2;stroke-linecap:butt;stroke-linejoin:miter;stroke:rgb(0%,0%,0%);stroke-opacity:1;stroke-miterlimit:10;" d="M 167.035156 164.523438 L 166.109375 145.71875 "/>
<path style="fill:none;stroke-width:1.2;stroke-linecap:butt;stroke-linejoin:miter;stroke:rgb(0%,0%,0%);stroke-opacity:1;stroke-miterlimit:10;" d="M 181.933594 135.511719 L 198.679688 144.113281 "/>
<path style="fill:none;stroke-width:1.2;stroke-linecap:butt;stroke-linejoin:miter;stroke:rgb(0%,0%,0%);stroke-opacity:1;stroke-miterlimit:10;" d="M 198.679688 144.113281 L 199.605469 162.917969 "/>
<path style="fill:none;stroke-width:1.2;stroke-linecap:butt;stroke-linejoin:miter;stroke:rgb(0%,0%,0%);stroke-opacity:1;stroke-miterlimit:10;" d="M 194.347656 146.210938 L 195.089844 161.257812 "/>
<path style="fill:none;stroke-width:1.2;stroke-linecap:butt;stroke-linejoin:miter;stroke:rgb(0%,0%,0%);stroke-opacity:1;stroke-miterlimit:10;" d="M 198.679688 144.113281 L 214.503906 133.910156 "/>
<path style="fill:none;stroke-width:1.2;stroke-linecap:butt;stroke-linejoin:miter;stroke:rgb(0%,0%,0%);stroke-opacity:1;stroke-miterlimit:10;" d="M 199.605469 162.917969 L 183.78125 173.125 "/>
<path style="fill:none;stroke-width:1.2;stroke-linecap:butt;stroke-linejoin:miter;stroke:rgb(0%,0%,0%);stroke-opacity:1;stroke-miterlimit:10;" d="M 183.78125 173.125 L 167.035156 164.523438 "/>
<path style="fill:none;stroke-width:1.2;stroke-linecap:butt;stroke-linejoin:miter;stroke:rgb(0%,0%,0%);stroke-opacity:1;stroke-miterlimit:10;" d="M 184.132812 168.324219 L 170.734375 161.441406 "/>
<path style="fill:none;stroke-width:1.2;stroke-linecap:butt;stroke-linejoin:miter;stroke:rgb(0%,0%,0%);stroke-opacity:1;stroke-miterlimit:10;" d="M 167.035156 164.523438 L 152.910156 176.972656 "/>
<path style="fill:none;stroke-width:1.2;stroke-linecap:butt;stroke-linejoin:miter;stroke:rgb(0%,0%,0%);stroke-opacity:1;stroke-miterlimit:10;" d="M 150.777344 177.570312 L 153.320312 186.632812 "/>
<path style="fill:none;stroke-width:1.2;stroke-linecap:butt;stroke-linejoin:miter;stroke:rgb(100%,0%,0%);stroke-opacity:1;stroke-miterlimit:10;" d="M 153.320312 186.632812 L 155.863281 195.699219 "/>
<path style="fill:none;stroke-width:1.2;stroke-linecap:butt;stroke-linejoin:miter;stroke:rgb(0%,0%,0%);stroke-opacity:1;stroke-miterlimit:10;" d="M 155.042969 176.371094 L 157.585938 185.4375 "/>
<path style="fill:none;stroke-width:1.2;stroke-linecap:butt;stroke-linejoin:miter;stroke:rgb(100%,0%,0%);stroke-opacity:1;stroke-miterlimit:10;" d="M 157.585938 185.4375 L 160.128906 194.5 "/>
<path style="fill:none;stroke-width:1.2;stroke-linecap:butt;stroke-linejoin:miter;stroke:rgb(0%,0%,0%);stroke-opacity:1;stroke-miterlimit:10;" d="M 152.910156 176.972656 L 143.636719 175.328125 "/>
<path style="fill:none;stroke-width:1.2;stroke-linecap:butt;stroke-linejoin:miter;stroke:rgb(0%,0%,100%);stroke-opacity:1;stroke-miterlimit:10;" d="M 143.636719 175.328125 L 134.367188 173.6875 "/>
<path style=" stroke:none;fill-rule:nonzero;fill:rgb(100%,100%,100%);fill-opacity:1;" d="M 153.996094 189.597656 L 161.996094 189.597656 L 161.996094 200.597656 L 153.996094 200.597656 Z M 153.996094 189.597656 "/>
<g style="fill:rgb(100%,0%,0%);fill-opacity:1;">
  <use xlink:href="#glyph0-1" x="153.996094" y="198.260742"/>
</g>
<path style="fill:none;stroke-width:1.2;stroke-linecap:butt;stroke-linejoin:miter;stroke:rgb(0%,0%,100%);stroke-opacity:1;stroke-miterlimit:10;" d="M 134.367188 173.6875 L 129.871094 165.417969 "/>
<path style="fill:none;stroke-width:1.2;stroke-linecap:butt;stroke-linejoin:miter;stroke:rgb(0%,0%,0%);stroke-opacity:1;stroke-miterlimit:10;" d="M 129.871094 165.417969 L 125.375 157.148438 "/>
<path style=" stroke:none;fill-rule:nonzero;fill:rgb(100%,100%,100%);fill-opacity:1;" d="M 127.367188 168.1875 L 141.367188 168.1875 L 141.367188 179.1875 L 127.367188 179.1875 Z M 127.367188 168.1875 "/>
<g style="fill:rgb(0%,0%,100%);fill-opacity:1;">
  <use xlink:href="#glyph0-2" x="127.367188" y="176.850586"/>
  <use xlink:href="#glyph0-3" x="134.344727" y="176.850586"/>
</g>
<path style="fill:none;stroke-width:1.2;stroke-linecap:butt;stroke-linejoin:miter;stroke:rgb(0%,0%,0%);stroke-opacity:1;stroke-miterlimit:10;" d="M 125.375 157.148438 L 106.691406 159.476562 "/>
<path style="fill:none;stroke-width:1.2;stroke-linecap:butt;stroke-linejoin:miter;stroke:rgb(0%,0%,0%);stroke-opacity:1;stroke-miterlimit:10;" d="M 122.960938 152.984375 L 108.011719 154.847656 "/>
<path style="fill:none;stroke-width:1.2;stroke-linecap:butt;stroke-linejoin:miter;stroke:rgb(0%,0%,0%);stroke-opacity:1;stroke-miterlimit:10;" d="M 214.503906 133.910156 L 231.253906 142.511719 "/>
<path style="fill:none;stroke-width:1.2;stroke-linecap:butt;stroke-linejoin:miter;stroke:rgb(0%,0%,0%);stroke-opacity:1;stroke-miterlimit:10;" d="M 218.203125 130.828125 L 231.601562 137.710938 "/>
<path style="fill:none;stroke-width:1.2;stroke-linecap:butt;stroke-linejoin:miter;stroke:rgb(0%,0%,0%);stroke-opacity:1;stroke-miterlimit:10;" d="M 213.578125 115.105469 L 214.503906 133.910156 "/>
<path style="fill:none;stroke-width:1.2;stroke-linecap:butt;stroke-linejoin:miter;stroke:rgb(0%,0%,0%);stroke-opacity:1;stroke-miterlimit:10;" d="M 231.253906 142.511719 L 247.074219 132.308594 "/>
<path style="fill:none;stroke-width:1.2;stroke-linecap:butt;stroke-linejoin:miter;stroke:rgb(0%,0%,0%);stroke-opacity:1;stroke-miterlimit:10;" d="M 247.074219 132.308594 L 255.449219 136.609375 "/>
<path style="fill:none;stroke-width:1.2;stroke-linecap:butt;stroke-linejoin:miter;stroke:rgb(100%,0%,0%);stroke-opacity:1;stroke-miterlimit:10;" d="M 255.449219 136.609375 L 263.824219 140.910156 "/>
<path style="fill:none;stroke-width:1.2;stroke-linecap:butt;stroke-linejoin:miter;stroke:rgb(0%,0%,0%);stroke-opacity:1;stroke-miterlimit:10;" d="M 247.074219 132.308594 L 246.613281 122.90625 "/>
<path style="fill:none;stroke-width:1.2;stroke-linecap:butt;stroke-linejoin:miter;stroke:rgb(0%,0%,100%);stroke-opacity:1;stroke-miterlimit:10;" d="M 246.613281 122.90625 L 246.152344 113.503906 "/>
<path style="fill:none;stroke-width:1.2;stroke-linecap:butt;stroke-linejoin:miter;stroke:rgb(0%,0%,0%);stroke-opacity:1;stroke-miterlimit:10;" d="M 242.558594 130.644531 L 242.1875 123.121094 "/>
<path style="fill:none;stroke-width:1.2;stroke-linecap:butt;stroke-linejoin:miter;stroke:rgb(0%,0%,100%);stroke-opacity:1;stroke-miterlimit:10;" d="M 242.1875 123.121094 L 241.816406 115.601562 "/>
<path style="fill:none;stroke-width:1.2;stroke-linecap:butt;stroke-linejoin:miter;stroke:rgb(100%,0%,0%);stroke-opacity:1;stroke-miterlimit:10;" d="M 263.824219 140.910156 L 264.289062 150.3125 "/>
<path style="fill:none;stroke-width:1.2;stroke-linecap:butt;stroke-linejoin:miter;stroke:rgb(0%,0%,0%);stroke-opacity:1;stroke-miterlimit:10;" d="M 264.289062 150.3125 L 264.75 159.714844 "/>
<path style=" stroke:none;fill-rule:nonzero;fill:rgb(100%,100%,100%);fill-opacity:1;" d="M 259.824219 135.410156 L 267.824219 135.410156 L 267.824219 146.410156 L 259.824219 146.410156 Z M 259.824219 135.410156 "/>
<g style="fill:rgb(100%,0%,0%);fill-opacity:1;">
  <use xlink:href="#glyph0-1" x="259.824219" y="144.073242"/>
</g>
<path style="fill:none;stroke-width:1.2;stroke-linecap:butt;stroke-linejoin:miter;stroke:rgb(0%,0%,100%);stroke-opacity:1;stroke-miterlimit:10;" d="M 246.152344 113.503906 L 237.777344 109.203125 "/>
<path style="fill:none;stroke-width:1.2;stroke-linecap:butt;stroke-linejoin:miter;stroke:rgb(0%,0%,0%);stroke-opacity:1;stroke-miterlimit:10;" d="M 237.777344 109.203125 L 229.402344 104.902344 "/>
<path style=" stroke:none;fill-rule:nonzero;fill:rgb(100%,100%,100%);fill-opacity:1;" d="M 243.152344 108.003906 L 250.152344 108.003906 L 250.152344 119.003906 L 243.152344 119.003906 Z M 243.152344 108.003906 "/>
<g style="fill:rgb(0%,0%,100%);fill-opacity:1;">
  <use xlink:href="#glyph0-2" x="243.152344" y="116.666992"/>
</g>
<path style="fill:none;stroke-width:1.2;stroke-linecap:butt;stroke-linejoin:miter;stroke:rgb(0%,0%,0%);stroke-opacity:1;stroke-miterlimit:10;" d="M 229.402344 104.902344 L 213.578125 115.105469 "/>
<path style="fill:none;stroke-width:1.2;stroke-linecap:butt;stroke-linejoin:miter;stroke:rgb(0%,0%,0%);stroke-opacity:1;stroke-miterlimit:10;" d="M 230.21875 109.644531 L 217.5625 117.808594 "/>
<path style="fill:none;stroke-width:1.2;stroke-linecap:butt;stroke-linejoin:miter;stroke:rgb(0%,0%,0%);stroke-opacity:1;stroke-miterlimit:10;" d="M 213.578125 115.105469 L 196.828125 106.503906 "/>
</g>
</svg>

<svg xmlns="http://www.w3.org/2000/svg" xmlns:xlink="http://www.w3.org/1999/xlink" width="300pt" height="300pt" viewBox="0 0 300 300"><defs><symbol overflow="visible"><path d="M.453 1.594v-7.938h4.5v7.938zm.5-.5h3.5v-6.938h-3.5zm0 0"/></symbol><symbol overflow="visible" id="a"><path d="M3.547-5.953c-.65 0-1.164.242-1.547.72-.375.48-.563 1.13-.563 1.952 0 .835.188 1.49.563 1.967.383.48.898.72 1.547.72.644 0 1.156-.24 1.53-.72.376-.476.564-1.132.564-1.968 0-.822-.187-1.474-.562-1.954-.375-.477-.887-.72-1.53-.72zm0-.734c.914 0 1.648.312 2.203.937.55.617.828 1.438.828 2.47 0 1.042-.277 1.87-.828 2.483-.555.617-1.29.922-2.203.922-.93 0-1.668-.305-2.22-.922C.774-1.41.5-2.237.5-3.28c0-1.033.273-1.853.828-2.47.55-.625 1.29-.938 2.22-.938zm0 0"/></symbol><symbol overflow="visible" id="b"><path d="M.89-6.563H2.08l2.906 5.485v-5.484h.86V0H4.656L1.75-5.484V0H.89zm0 0"/></symbol><symbol overflow="visible" id="c"><path d="M.89-6.563h.876v2.688H5v-2.688h.89V0H5v-3.125H1.766V0H.89zm0 0"/></symbol></defs><g><path fill="#fff" d="M0 0h300v300H0z"/><path d="M35.25 119.082l5.68 7.508" stroke-width="1.2" stroke="#000" stroke-miterlimit="10" fill="none"/><path d="M40.93 126.59l5.68 7.508M46.61 134.098l9.34-1.164" stroke-width="1.2" stroke="#f00" stroke-miterlimit="10" fill="none"/><path d="M55.95 132.934l9.343-1.164" stroke-width="1.2" stroke="#000" stroke-miterlimit="10" fill="none"/><path d="M42.61 128.598h8v11h-8zm0 0" fill="#fff"/><use xlink:href="#a" x="42.609" y="137.261" fill="#f00"/><path d="M67.332 132.633l3.664-8.672" stroke-width="1.2" stroke="#000" stroke-miterlimit="10" fill="none"/><path d="M70.996 123.96l3.66-8.67" stroke-width="1.2" stroke="#f00" stroke-miterlimit="10" fill="none"/><path d="M63.25 130.91l3.664-8.672" stroke-width="1.2" stroke="#000" stroke-miterlimit="10" fill="none"/><path d="M66.914 122.238l3.664-8.675" stroke-width="1.2" stroke="#f00" stroke-miterlimit="10" fill="none"/><path d="M65.293 131.77l11.355 15.015" stroke-width="1.2" stroke="#000" stroke-miterlimit="10" fill="none"/><path d="M68.617 108.926h8v11h-8zm0 0" fill="#fff"/><use xlink:href="#a" x="68.617" y="117.589" fill="#f00"/><path d="M76.648 146.785l18.684-2.328M95.332 144.457l7.328-17.344M100.148 144.45l5.86-13.876M106.69 159.477l-11.358-15.02M102.66 127.113l18.684-2.328M121.344 124.785L132.7 139.8M118.945 128.96l9.086 12.013M132.7 139.8l9.066-2.542" stroke-width="1.2" stroke="#000" stroke-miterlimit="10" fill="none"/><path d="M141.766 137.258l9.062-2.543" stroke-width="1.2" stroke="#00f" stroke-miterlimit="10" fill="none"/><path d="M125.375 157.148L132.7 139.8" stroke-width="1.2" stroke="#000" stroke-miterlimit="10" fill="none"/><path d="M150.828 134.715l7.64 5.5" stroke-width="1.2" stroke="#00f" stroke-miterlimit="10" fill="none"/><path d="M158.47 140.215l7.64 5.504" stroke-width="1.2" stroke="#000" stroke-miterlimit="10" fill="none"/><path d="M143.828 129.215h14v11h-14zm0 0" fill="#fff"/><g fill="#00f"><use xlink:href="#b" x="143.828" y="137.878"/><use xlink:href="#c" x="150.806" y="137.878"/></g><path d="M166.11 145.72l15.824-10.208M170.094 148.422l12.656-8.164M167.035 164.523l-.926-18.804M181.934 135.512l16.746 8.6M198.68 144.113l.925 18.805M194.348 146.21l.742 15.048M198.68 144.113l15.824-10.203M199.605 162.918l-15.824 10.207M183.78 173.125l-16.745-8.602M184.133 168.324l-13.4-6.883M167.035 164.523l-14.125 12.45M150.777 177.57l2.543 9.063" stroke-width="1.2" stroke="#000" stroke-miterlimit="10" fill="none"/><path d="M153.32 186.633l2.543 9.066" stroke-width="1.2" stroke="#f00" stroke-miterlimit="10" fill="none"/><path d="M155.043 176.37l2.543 9.067" stroke-width="1.2" stroke="#000" stroke-miterlimit="10" fill="none"/><path d="M157.586 185.438l2.543 9.062" stroke-width="1.2" stroke="#f00" stroke-miterlimit="10" fill="none"/><path d="M152.91 176.973l-9.273-1.645" stroke-width="1.2" stroke="#000" stroke-miterlimit="10" fill="none"/><path d="M143.637 175.328l-9.27-1.64" stroke-width="1.2" stroke="#00f" stroke-miterlimit="10" fill="none"/><path d="M153.996 189.598h8v11h-8zm0 0" fill="#fff"/><use xlink:href="#a" x="153.996" y="198.261" fill="#f00"/><path d="M134.367 173.688l-4.496-8.27" stroke-width="1.2" stroke="#00f" stroke-miterlimit="10" fill="none"/><path d="M129.87 165.418l-4.495-8.27" stroke-width="1.2" stroke="#000" stroke-miterlimit="10" fill="none"/><path d="M127.367 168.188h14v11h-14zm0 0" fill="#fff"/><g fill="#00f"><use xlink:href="#b" x="127.367" y="176.851"/><use xlink:href="#c" x="134.345" y="176.851"/></g><path d="M125.375 157.148l-18.684 2.33M122.96 152.984l-14.948 1.864M214.504 133.91l16.75 8.602M218.203 130.828l13.4 6.883M213.578 115.105l.926 18.805M231.254 142.512l15.82-10.203M247.074 132.31l8.375 4.3" stroke-width="1.2" stroke="#000" stroke-miterlimit="10" fill="none"/><path d="M255.45 136.61l8.374 4.3" stroke-width="1.2" stroke="#f00" stroke-miterlimit="10" fill="none"/><path d="M247.074 132.31l-.46-9.404" stroke-width="1.2" stroke="#000" stroke-miterlimit="10" fill="none"/><path d="M246.613 122.906l-.46-9.402" stroke-width="1.2" stroke="#00f" stroke-miterlimit="10" fill="none"/><path d="M242.56 130.645l-.373-7.524" stroke-width="1.2" stroke="#000" stroke-miterlimit="10" fill="none"/><path d="M242.188 123.12l-.372-7.518" stroke-width="1.2" stroke="#00f" stroke-miterlimit="10" fill="none"/><path d="M263.824 140.91l.465 9.403" stroke-width="1.2" stroke="#f00" stroke-miterlimit="10" fill="none"/><path d="M264.29 150.313l.46 9.402" stroke-width="1.2" stroke="#000" stroke-miterlimit="10" fill="none"/><path d="M259.824 135.41h8v11h-8zm0 0" fill="#fff"/><use xlink:href="#a" x="259.824" y="144.073" fill="#f00"/><path d="M246.152 113.504l-8.375-4.3" stroke-width="1.2" stroke="#00f" stroke-miterlimit="10" fill="none"/><path d="M237.777 109.203l-8.375-4.3" stroke-width="1.2" stroke="#000" stroke-miterlimit="10" fill="none"/><path d="M243.152 108.004h7v11h-7zm0 0" fill="#fff"/><use xlink:href="#b" x="243.152" y="116.667" fill="#00f"/><path d="M229.402 104.902l-15.824 10.203M230.22 109.645l-12.657 8.164M213.578 115.105l-16.75-8.6" stroke-width="1.2" stroke="#000" stroke-miterlimit="10" fill="none"/></g></svg>
